resources/svg/solid/id-badge.svg

<svg fill="currentColor" xmlns="http://www.w3.org/2000/svg" viewBox="0 0 384 512"><!--! Font Awesome Free 6.1.2 by @fontawesome - https://fontawesome.com License - https://fontawesome.com/license/free (Icons: CC BY 4.0, Fonts: SIL OFL 1.1, Code: MIT License) Copyright 2022 Fonticons, Inc. --><path d="M336 0h-288C21.49 0 0 21.49 0 48v416C0 490.5 21.49 512 48 512h288c26.51 0 48-21.49 48-48v-416C384 21.49 362.5 0 336 0zM192 160c35.35 0 64 28.65 64 64s-28.65 64-64 64S128 259.3 128 224S156.7 160 192 160zM288 416H96c-8.836 0-16-7.164-16-16C80 355.8 115.8 320 160 320h64c44.18 0 80 35.82 80 80C304 408.8 296.8 416 288 416zM240 96h-96C135.2 96 128 88.84 128 80S135.2 64 144 64h96C248.8 64 256 71.16 256 80S248.8 96 240 96z"/></svg>

<svg fill="currentColor" xmlns="http://www.w3.org/2000/svg" viewBox="0 0 384 512"><!--! Font Awesome Free 6.2.0 by @fontawesome - https://fontawesome.com License - https://fontawesome.com/license/free (Icons: CC BY 4.0, Fonts: SIL OFL 1.1, Code: MIT License) Copyright 2022 Fonticons, Inc. --><path d="M64 0C28.7 0 0 28.7 0 64V448c0 35.3 28.7 64 64 64H320c35.3 0 64-28.7 64-64V64c0-35.3-28.7-64-64-64H64zm96 320h64c44.2 0 80 35.8 80 80c0 8.8-7.2 16-16 16H96c-8.8 0-16-7.2-16-16c0-44.2 35.8-80 80-80zm96-96c0 35.3-28.7 64-64 64s-64-28.7-64-64s28.7-64 64-64s64 28.7 64 64zM144 64h96c8.8 0 16 7.2 16 16s-7.2 16-16 16H144c-8.8 0-16-7.2-16-16s7.2-16 16-16z"/></svg>
